neru-light-classic/22x22/panel/pia_tray_connected.svg

<svg xmlns="http://www.w3.org/2000/svg" width="22" height="22" version="1.1">
 <defs>
  <style id="current-color-scheme" type="text/css">
   .ColorScheme-Text { color:#1e333d; } .ColorScheme-Highlight { color:#3fb7ff; }
  </style>
 </defs>
 <path style="fill:currentColor" class="ColorScheme-Text" d="M 11.5,3 C 8.4627564,3 6.0004562,5.3276432 6,8.199219 6.00172,8.332894 6.00888,8.466457 6.021484,8.599609 L 6,8.599609 6,9 4.8339844,9 C 4.3723177,9 4,9.346455 4,9.777344 l 0,5.445312 C 4,15.653545 4.3723177,16 4.8339844,16 L 6,16 6,18.199219 C 6,18.642419 6.3769338,19 6.8457031,19 l 2.9628907,0 1.2675782,-2 0.847656,0 1.267578,2 2.962891,0 C 16.623066,19 17,18.642419 17,18.199219 L 17,16 18.166016,16 C 18.627682,16 19,15.653545 19,15.222656 L 19,9.777344 C 19,9.346455 18.627682,9 18.166016,9 L 17,9 l 0,-0.400391 -0.01758,0 C 16.99372,8.466409 16.99958,8.332846 17,8.199219 16.999544,5.3276432 14.537244,3 11.5,3 Z m 0,2 c 1.932663,-1e-7 3.5,1 3.5,3.977539 -5.58e-4,0.01498 -0.0012,0.02995 -0.002,0.04492 l -6.998,0 C 7.9999069,9.007489 7.9999069,8.992509 8,8.977539 8,5.9999999 9.567337,4.9999998 11.5,5 Z M 9,7 9,8 10,8 10,7 Z m 4,0 0,1 1,0 0,-1 z m -1.5,3 c 0.923333,0 1.466796,0.782188 1.466796,1.742188 l 0,0.257812 0.617188,0 C 13.811473,11.96085 14,12.262571 14,12.5 l 0,2.072266 C 14,14.809694 13.814818,15 13.583984,15 L 9.4160156,15 C 9.1851822,15 9,14.809694 9,14.572266 L 9,12.5 C 9,12.262571 9.2947796,11.803567 9.4160156,12 l 0.6171874,0 0,-0.257812 C 10.033203,10.781802 10.576667,10 11.5,10 Z m 0,0.857422 c -0.461667,0 -0.632812,0.382565 -0.632812,0.857422 l 0,0.285156 1.265625,0 0,-0.285156 c 0,-0.474857 -0.171146,-0.857422 -0.632813,-0.857422 z"/>
</svg>

<svg xmlns="http://www.w3.org/2000/svg" width="22" height="22"><defs><style id="current-color-scheme" type="text/css"></style></defs><path d="M11.5 3C8.463 3 6 5.328 6 8.2c.002.133.009.266.021.4H6V9H4.834C4.372 9 4 9.346 4 9.777v5.446c0 .43.372.777.834.777H6v2.2c0 .442.377.8.846.8h2.963l1.267-2h.848l1.267 2h2.963c.47 0 .846-.358.846-.8V16h1.166c.462 0 .834-.346.834-.777V9.777c0-.43-.372-.777-.834-.777H17v-.4h-.018A4.92 4.92 0 0 0 17 8.2C17 5.327 14.537 3 11.5 3zm0 2C13.433 5 15 6 15 8.978l-.002.044H8v-.044C8 6 9.567 5 11.5 5zM9 7v1h1V7zm4 0v1h1V7zm-1.5 3c.923 0 1.467.782 1.467 1.742V12h.617c.227-.04.416.263.416.5v2.072a.42.42 0 0 1-.416.428H9.416A.42.42 0 0 1 9 14.572V12.5c0-.237.295-.696.416-.5h.617v-.258c0-.96.544-1.742 1.467-1.742zm0 .857c-.462 0-.633.383-.633.858V12h1.266v-.285c0-.475-.171-.858-.633-.858z" fill="currentColor" color="#1e333d"/></svg>
